X:3432
T:La Rapide
O:england
M:3/8
L:1/16
K:C
c2|d2dcBd|dec2de|BdBdef|g2Bdc2|\
d2dcBd|dec2de|BdBdde|g4:|
ef|:gabag2|f4d2|efg2f2|e2d4|\
g2efg2|e2c4|deBdB2|1 Bddec2:|2 c4||


